X: 40
T: Lan gong diao
L: 1/16
M: 2/4
K: Bb
f f f gc'4c'4 [I:setbarnb 1]| 
c'2> f'2 c'2 c'2 | 
[M:3/4]g b g fg4f3 b | 
[M:2/4]g f e d c2 z2 | 
f f2 g c'2 c' b | 
g b f g c'2 b g | 
[M:3/4]f e2 fg4b3 g | 
f e d2 c2 z2 |]

@@@ Tune index: 8708
